X: 21613
Q: "Allegretto."
U: Q=!diminuendo(!
U: q=!diminuendo)!
M: 2/4
L: 1/16
K: C
!p!c2 |\
QB3qc d2f2 | {fg}.f2.e2 .e.f.e2 | {ef}.e2.d2 .d.e.d2 | {de}.d2.c2 .c.d.c2 |\
QB3qc d2f2 | {fg}f2e2 efe2 | {ef}e2d2 ded2 | c2c'2c2 :|
|: !f!d2 |\
.d2.e.^f .g.a.b.c' | .d'2.d2 .b4 | {bc'}.b2.a2 .a.b.a2 | {ab}.a2.g2 .g.a.g2 |\
.d2.e.^f .g.a.b.c' | .d'2.d2 b4 | {bc'}.b2.a2 .a.b.a2 | g2b2g2 :|
|: !p!c2 |\


